X:1
T: The Mariner's Frock
C:
R:Jig
Q:180
K:Am
M:6/8
L:1/16
A2|A2G2E2 G4A2|G4E2 E4D2|E2A2A2 c4d2|e4d2 d2e2^f2|g6 g2^f2e2|d2c2B2 c4d2|e2d2c2 B2A2G2|B4A2 A4A2|
A2G2E2 G4A2|G4E2 E4D2|E2A2A2 c4d2|e4d2 d2e2^f2|g6 g2^f2e2|d2c2B2 c4d2|e2d2c2 B2A2G2|B4A2 A4z2|
a4a2 a2^g2a2|a4e2 e4^f2|g4a2 g4e2|d2B2G2 G2B2d2|g4g2 e4e2|d2c2B2 c4d2|e2d2c2 B2A2G2|B4A2 A4z2|
a4a2 a2^g2a2|a4e2 e4^f2|g4a2 g4e2|d2B2G2 G2B2d2|g4g2 e4e2|d2c2B2 c4d2|e2d2c2 B2A2G2|B4A2 A4||
